svgs/duotone/calendar-day.svg

<svg xmlns="http://www.w3.org/2000/svg" viewBox="0 0 448 512"><!--! Font Awesome Pro 6.6.0 by @fontawesome - https://fontawesome.com License - https://fontawesome.com/license (Commercial License) Copyright 2024 Fonticons, Inc. --><path class="fa-secondary" style="fill:var(--fa-secondary-color,inherit);opacity:var(--fa-secondary-opacity,.4);" d="M0 192L0 464c0 26.5 21.5 48 48 48l352 0c26.5 0 48-21.5 48-48l0-272L0 192zm64 80c0-8.8 7.2-16 16-16l96 0c8.8 0 16 7.2 16 16l0 96c0 8.8-7.2 16-16 16l-96 0c-8.8 0-16-7.2-16-16l0-96z"/><path class="fa-primary" style="fill:var(--fa-primary-color,inherit);opacity:var(--fa-primary-opacity,1);" d="M96 32c0-17.7 14.3-32 32-32s32 14.3 32 32l0 32 128 0 0-32c0-17.7 14.3-32 32-32s32 14.3 32 32l0 32 48 0c26.5 0 48 21.5 48 48l0 80L0 192l0-80C0 85.5 21.5 64 48 64l48 0 0-32z"/></svg>

<svg xmlns="http://www.w3.org/2000/svg" viewBox="0 0 448 512"><!--! Font Awesome Pro 6.4.2 by @fontawesome - https://fontawesome.com License - https://fontawesome.com/license (Commercial License) Copyright 2023 Fonticons, Inc. --><path class="fa-primary" style="fill:var(--fa-primary-color,inherit);opacity:var(--fa-primary-opacity,1);" d="M96 32c0-17.7 14.3-32 32-32s32 14.3 32 32V64H288V32c0-17.7 14.3-32 32-32s32 14.3 32 32V64h48c26.5 0 48 21.5 48 48v80H0V112C0 85.5 21.5 64 48 64H96V32z"/><path class="fa-secondary" style="fill:var(--fa-secondary-color,inherit);opacity:var(--fa-secondary-opacity,.4);" d="M448 192H0V464c0 26.5 21.5 48 48 48H400c26.5 0 48-21.5 48-48V192zM80 256h96c8.8 0 16 7.2 16 16v96c0 8.8-7.2 16-16 16H80c-8.8 0-16-7.2-16-16V272c0-8.8 7.2-16 16-16z"/></svg>
